!!!COM: Fux, Johann Joseph
!!!OMD: Gradus ad Parnassum Exercise
!!!YEC: CC0 1.0 Universal (Public Domain). Mark Gotham and FourScoreAndMore.org waive all rights to this document.
**kern	**kern
*part2	*part1
*staff2	*staff1
*I"2	*I"1
*I'Pno	*I'Pno
!!LO:PB:g=z
*clefG2	*clefG2
*k[]	*k[]
!!LO:TX:omd:t=
*M2/2	*M2/2
=119	=119
!	!LO:TX:a:t=Fig. 33 (corrected version of 26); Species&colon; 2; Modal final&colon; d; Cantus firmus&colon; Lower
1d	2a/
.	2dd\
=120	=120
1f	2a/
.	2b\
=121	=121
1e	2cc\
.	2g/
=122	=122
1d	2a/
.	2dd\
=123	=123
1g	2b\
.	2cc\
!!LO:LB:g=z
=124	=124
1f	2dd\
.	2a/
=125	=125
1a	2cc\
.	2dd\
=126	=126
1g	2ee\
.	2b\
=127	=127
1f	2dd\
.	2a/
=128	=128
1e	2b\
.	2cc#X\
=129	=129
1d	1dd
==	==
*-	*-
!!!software: music21 v.9.7.1
!!!software: music21 v.9.7.1
!!!software: MuseScore 3.4.2
!!!RDF**kern: > = above
!!!RDF**kern: < = below
